X:1
T: The Whore's March
S:Wm Vickers MS c. 1776
S: "Pete Stewart" <pete:wintonpottery.co.uk> tradtunes 2010-3-11
M:6/8
L:1/8
K:G
B/c/ | dcB cBA | G2GG2B/c/ | dcB cBA | G2GG2 :|
|: B | G2dd3 | G2ee3 | G2g fed | edc"#" d2 B/c/ |
dcB cBA | G2GG2B/c/ | dcB cBA | (G3G3) :|

